icon-themes/sifr_svg/cmd/sc_hidedetail.svg

<svg viewBox="0 0 16 16" xmlns="http://www.w3.org/2000/svg"><g fill="#555753"><path d="m7 2v2h8v-2zm0 3v2h4v-2zm-7 2v2h6v-2z"/><path d="m7 9v2h8v-2zm0 3v2h4v-2z" opacity=".35"/></g></svg>

<svg xmlns="http://www.w3.org/2000/svg" viewBox="0 0 16 16">
  <path
     style="fill:#555753"
     d="M 7 2 L 7 4 L 15 4 L 15 2 L 7 2 z M 7 5 L 7 7 L 11 7 L 11 5 L 7 5 z M 0 7 L 0 9 L 6 9 L 6 7 L 0 7 z "
     />
  <path
     style="opacity:0.35;fill:#555753"
     d="m 7,9 v 2 h 8 V 9 Z m 0,3 v 2 h 4 v -2 z"
     />
</svg>
